X:306
T:The swallow's tail
T:The pride of the ball
R:Reel
O:Ireland
B:O'Neill's 1268
B:Kerr's Second p25
S:1 My arrangement from various sources
Z:1 Transcription, arrangement, chords:Mike Long
B:2 Joyce, P. W.; "Old Irish Folk Music and Songs"
S:2 joyce.abc
Z:2 Transcription:??, chords:Mike Long
M:C|
L:1/8
K:G
gf|\
"Am"eA (3(cBA) eAcA|cdef gedB|"G"G2BG dGBG|cdef g2fg|\
"Am"eA (3(cBA) eAcA|
cdef g2fg|"G"afge dBGB|"Em"cABG "Am"A2:|\
|:cd|"Am"eaag abag|edef gedB|
"G"G2BG dGBG|cdef g2fg|\
"Am"eaag abag|edef g2fg|"G"afge dBGB|"Em"cABG "Am"A2:|
P:Arr. P.W. Joyce
K:G
cB|\
"D"A2FD A2FD|EGAB cBcA|"C"G2EC G2EC|EGAB c2Bc|\
"D"A2FD A2FD|EGAB c2Bc|
"C"dBcA BGAF|"G"GBAF "D"D2:|\
|:FG|\
"D"Addd dcAG|FDAB c2BA|"C"G2EC G2EC|
EGAB c2Bc|\
"D"Addd dcAG|FGAB cBce|"C"dBcA BGAF|"G"GBAF "D"D2:|
